logos/mailgun-icon.svg

<?xml version="1.0" encoding="UTF-8"?>
<svg width="256px" height="261px" viewBox="0 0 256 261" version="1.1" xmlns="http://www.w3.org/2000/svg" preserveAspectRatio="xMidYMid">
    <title>Mailgun</title>
    <g>
        <path d="M126.142926,0.0477874502 C197.684555,0.0477874502 256,58.3632329 256,130.0251 C255.915282,145.192808 247.674876,159.141383 234.431001,166.53505 C221.187126,173.928718 204.98917,173.623363 192.033367,165.735795 L191.432177,165.375081 L191.191701,165.976272 C173.084029,198.800945 133.389353,213.034991 98.5489524,199.196874 C63.708552,185.358758 44.5979275,147.768075 53.9469824,111.464602 C63.2960372,75.1611294 98.1864455,51.4770672 135.377129,56.1887616 C172.567812,60.900456 200.449624,92.5371423 200.450029,130.0251 C201.11179,137.067512 207.02361,142.449853 214.097046,142.449853 C221.170482,142.449853 227.082301,137.067512 227.744062,130.0251 C227.744102,73.8928582 182.275128,28.3700751 126.142926,28.303725 C79.0601794,28.2189389 38.0721584,60.4562492 27.0598611,106.233115 C16.0475638,152.009982 37.8892285,199.361895 79.8591671,220.70004 C121.829106,242.038185 172.957811,231.785499 203.45598,195.915541 L225.098826,214.191722 C200.486858,243.327398 164.282622,260.131795 126.142926,260.122654 C55.8643207,257.985377 -1.3500312e-13,200.396315 -1.3500312e-13,130.085219 C-1.3500312e-13,59.7741229 55.8643207,2.18506075 126.142926,0.0477874502 L126.142926,0.0477874502 Z M126.142926,83.9739337 C109.106189,83.1262342 92.9900401,91.7408144 84.2302238,106.37757 C75.4704076,121.014326 75.4942329,139.288369 84.2921856,153.902234 C93.0901383,168.516098 109.228695,177.088625 126.263164,176.196504 C150.814122,174.910733 170.051824,154.612675 170.019811,130.028092 C169.987719,105.443508 150.697154,85.1956823 126.142926,83.9739337 L126.142926,83.9739337 Z M126.142926,111.388205 C136.435798,111.388205 144.77982,119.732227 144.77982,130.0251 C144.77982,140.317973 136.435798,148.661995 126.142926,148.661995 C115.850053,148.661995 107.506031,140.317973 107.506031,130.0251 C107.506031,119.732227 115.850053,111.388205 126.142926,111.388205 Z" fill="#F06B66"></path>
    </g>
</svg>

<svg preserveAspectRatio="xMidYMid" viewBox="0 0 256 261" xmlns="http://www.w3.org/2000/svg">
  <path fill="#F06B66" d="M126.143.048C197.685.048 256 58.363 256 130.025a42.083 42.083 0 0 1-63.967 35.71l-.6-.36-.241.601c-18.108 32.825-57.803 47.059-92.643 33.22-34.84-13.837-53.951-51.428-44.602-87.731 9.349-36.304 44.24-59.988 81.43-55.276 37.19 4.711 65.073 36.348 65.073 73.836a13.707 13.707 0 0 0 27.294 0c0-56.132-45.469-101.655-101.601-101.721-47.083-.085-88.07 32.152-99.083 77.93-11.012 45.776 10.83 93.128 52.8 114.466 41.97 21.338 93.098 11.085 123.596-24.784l21.643 18.276a129.496 129.496 0 0 1-98.956 45.93C55.864 257.986 0 200.397 0 130.086S55.864 2.185 126.143.048Zm0 83.926a46.171 46.171 0 1 0 .12 92.223c24.551-1.286 43.789-21.584 43.757-46.169-.032-24.584-19.323-44.832-43.877-46.054Zm0 27.414c10.293 0 18.637 8.344 18.637 18.637 0 10.293-8.344 18.637-18.637 18.637-10.293 0-18.637-8.344-18.637-18.637 0-10.293 8.344-18.637 18.637-18.637Z"/>
</svg>
